material/.icons/material/web-box.svg

<svg xmlns="http://www.w3.org/2000/svg" viewBox="0 0 24 24"><path d="M8.95 13.4H6.58a5.5 5.5 0 010-2.8h2.37a11.56 11.56 0 00-.1 1.4 11.56 11.56 0 00.1 1.4M7.16 9.2H9.2a12.06 12.06 0 01.98-2.49A5.55 5.55 0 007.16 9.2m9.68 0a5.59 5.59 0 00-3.03-2.49 10.95 10.95 0 01.97 2.49M12 17.57a9.5 9.5 0 001.34-2.77h-2.68A9.5 9.5 0 0012 17.57m0-11.15a9.53 9.53 0 00-1.34 2.78h2.68A9.53 9.53 0 0012 6.42M7.16 14.8a5.61 5.61 0 003.02 2.49 12.06 12.06 0 01-.98-2.49M21 5v14a2 2 0 01-2 2H5a2 2 0 01-2-2V5a2 2 0 012-2h14a2 2 0 012 2m-2 7a7 7 0 10-7 7 7 7 0 007-7m-3.85 0a11.56 11.56 0 01-.1 1.4h2.37a5.5 5.5 0 000-2.8h-2.37a11.56 11.56 0 01.1 1.4m-1.34 5.29a5.62 5.62 0 003.03-2.49h-2.06a10.95 10.95 0 01-.97 2.49m-3.45-6.69a8.81 8.81 0 000 2.8h3.28a10.3 10.3 0 00.11-1.4 10.21 10.21 0 00-.11-1.4z"/></svg>

<?xml version="1.0" encoding="UTF-8"?><!DOCTYPE svg PUBLIC "-//W3C//DTD SVG 1.1//EN" "http://www.w3.org/Graphics/SVG/1.1/DTD/svg11.dtd"><svg xmlns="http://www.w3.org/2000/svg" xmlns:xlink="http://www.w3.org/1999/xlink" version="1.1" id="mdi-web-box" width="24" height="24" viewBox="0 0 24 24"><path d="M8.95 13.4H6.58A5.5 5.5 0 0 1 6.58 10.6H8.95A11.56 11.56 0 0 0 8.85 12A11.56 11.56 0 0 0 8.95 13.4M7.16 9.2H9.2A12.06 12.06 0 0 1 10.18 6.71A5.55 5.55 0 0 0 7.16 9.2M16.84 9.2A5.59 5.59 0 0 0 13.81 6.71A10.95 10.95 0 0 1 14.78 9.2M12 17.57A9.5 9.5 0 0 0 13.34 14.8H10.66A9.5 9.5 0 0 0 12 17.57M12 6.42A9.53 9.53 0 0 0 10.66 9.2H13.34A9.53 9.53 0 0 0 12 6.42M7.16 14.8A5.61 5.61 0 0 0 10.18 17.29A12.06 12.06 0 0 1 9.2 14.8M21 5V19A2 2 0 0 1 19 21H5A2 2 0 0 1 3 19V5A2 2 0 0 1 5 3H19A2 2 0 0 1 21 5M19 12A7 7 0 1 0 12 19A7 7 0 0 0 19 12M15.15 12A11.56 11.56 0 0 1 15.05 13.4H17.42A5.5 5.5 0 0 0 17.42 10.6H15.05A11.56 11.56 0 0 1 15.15 12M13.81 17.29A5.62 5.62 0 0 0 16.84 14.8H14.78A10.95 10.95 0 0 1 13.81 17.29M10.36 10.6A8.81 8.81 0 0 0 10.36 13.4H13.64A10.3 10.3 0 0 0 13.75 12A10.21 10.21 0 0 0 13.64 10.6Z" /></svg>
